!!!!SEGMENT: 033-1-BH-002.krn
!!!COM: Frederic Chopin
!!!OTL: Mazurka No. II.
!!!OPS: Op. 33
!!!PTL: Quatre Mazurkas
!!!PPR: Breitkopf & Härtel
!!!PPP: Leipzig
!!!AFR: mazurka
!!!AGN: Mazurka
!!!NIFC-rismID: 300605146
!!!NIFC-shelfmark: PL-Wbfc 1665/n
!!!OMD: Vivace.
**kern	**kern	**dynam
*part1	*part1	*part1
*staff2	*staff1	*
*clefF4	*clefG2	*
*k[f#c#]	*k[f#c#]	*
*D:	*D:	*
*M3/4	*M3/4	*
*>[A,B,B1,B2,C]	*	*
*	*	*
*>A	*	*
4r	[>4a	f
=1	=1	=1
*	*^	*
*ped	*	*	*
4D	(>8aL]	4f#	.
.	8cc#	.	.
4d 4A 4D	8dd	4f#	.
.	8ee	.	.
4d 4A 4D	8ff#	4f#^<	.
.	8ggJ	.	.
*Xped	*	*	*
.	.	.	.
=2	=2	=2	=2
.	16qff#/LL	.	.
.	16qgg/JJ	.	.
*ped	*	*	*
4AA	4ff#	4r	.
4c# 4A 4E	8eeL	4g	.
.	8dd	.	.
4c# 4A 4E	8cc#	4g^<	.
.	8bJ)	.	.
*Xped	*	*	*
.	.	.	.
=3	=3	=3	=3
*ped	*	*	*
4DD	(>8aL/	4ryy	.
.	8ddJ	.	.
4d 4A 4D	12ddL	4f#	.
.	12ee	.	.
.	12ddJ	.	.
4d 4A 4D	8cc#L	4f#^<	.
.	8bJ)	.	.
*Xped	*	*	*
.	.	.	.
=4	=4	=4	=4
*ped	*	*	*
4AA	(>2.cc#^>	4r	.
4A	.	4a 4e	.
4e 4A	.	4a^< 4g^<)	.
*Xped	*	*	*
.	.	.	.
!!LO:LB:g=original
=5	=5	=5	=5
*ped	*	*	*
4D	(>8aL	4r	.
.	8cc#	.	.
4d 4A	8dd	4f#	.
.	8ee	.	.
4d 4A 4D	8ff#	4f#^<	.
*Xped	*	*	*
.	8ggJ	.	.
=6	=6	=6	=6
.	16qff#/LL	.	.
.	16qgg/JJ	.	.
*ped	*	*	*
4GG	4ff#	4r	.
4e 4B	8eeL	4g	.
.	8dd	.	.
4e 4B 4E	8cc#	4g^<	.
*Xped	*	*	*
.	8bJ)	.	.
=7	=7	=7	=7
*ped	*	*	*
4AA	(>8aL/	4r	.
.	8cc#J	.	.
4e 4A	12cc#L	4g	.
.	12dd	.	.
.	12cc#J	.	.
4e 4A	8bL	4g^<	.
*Xped	*	*	*
.	8aJ)	.	.
=8	=8	=8	=8
*ped	*	*	*
4DD	2.dd^>	4r	.
4d 4A 4D	.	4f#	.
[4d [4A [>4D	.	[4f#^<	.
*Xped	*	*	*
.	.	.	.
=9	=9	=9	=9
*ped	*	*	*
4d] 4A] 4D]	(>8aL	4f#]	pp
.	8cc#	.	.
4d 4A 4D	8dd	4f#	.
.	8ee	.	.
4d 4A 4D	8ff#	4f#	.
*Xped	*	*	*
.	8ggJ	.	.
=10	=10	=10	=10
.	16qff#/LL	.	.
.	16qgg/JJ	.	.
*ped	*	*	*
4AA	4ff#	4r	.
4c# 4A 4E	8eeL	4g	.
.	8dd	.	.
4c# 4A 4E	8cc#	4g	.
*Xped	*	*	*
.	8bJ)	.	.
!!LO:LB:g=original
=11	=11	=11	=11
*ped	*	*	*
4DD	(>8aL	4r	.
.	8ddJ	.	.
4d 4A 4D	12ddL	4f#	.
.	12ee	.	.
.	12ddJ	.	.
4d 4A 4D	8cc#L	4f#	.
*Xped	*	*	*
.	8bJ)	.	.
=12	=12	=12	=12
*ped	*	*	*
4AA	(2.cc#^>	4r	.
4c# 4A	.	4a 4e	.
4e [>4A	.	4a 4g)	.
*Xped	*	*	*
.	.	.	.
=13	=13	=13	=13
*ped	*	*	*
4A] 4D	(>8aL	4r	.
.	8cc#	.	.
4d 4A	8dd	4f#	.
.	8ee	.	.
4d 4A 4D	8ff#	4f#	.
*Xped	*	*	*
.	8ggJ	.	.
=14	=14	=14	=14
.	16qff#/LL	.	.
.	16qgg/JJ	.	.
*ped	*	*	*
4GG	4ff#	4r	.
4e 4B	8eeL	4g	.
.	8dd	.	.
4e 4B 4E	8cc#	4g	.
*Xped	*	*	*
.	8bJ)	.	.
=15	=15	=15	=15
*ped	*	*	*
4AA	(>8aL	4r	.
.	8cc#J	.	.
4e 4A	12cc#L	4g	.
.	12dd	.	.
.	12cc#J	.	.
4e 4A	8bL	4g	.
*Xped	*	*	*
.	8aJ)	.	.
=16	=16	=16	=16
*ped	*	*	*
4DD	>2.dd^>	4r	.
4d 4A 4D	.	4f#	.
4d 4A 4D	.	4f#	.
*Xped	*	*	*
.	.	.	.
!!LO:LB:g=original
=17	=17	=17	=17
*ped	*	*	*
4AA	(>8eL	4r	f
.	8g#X	.	.
4A 4E 4AA	8a	4c#	.
.	8b	.	.
4A 4E 4AA	8cc#	4c#^<	.
*Xped	*	*	*
.	8ddJ	.	.
=18	=18	=18	=18
.	16qcc#/LL	.	.
.	16qdd/JJ	.	.
*ped	*	*	*
4EE	4cc#	4r	.
4B 4E	8bL	4d	.
.	8a	.	.
4B 4E	8g#X	4d^<	.
*Xped	*	*	*
.	8f#J)	.	.
=19	=19	=19	=19
*ped	*	*	*
4AAA	(>8eL	4r	.
.	8aJ	.	.
4A 4E 4AA	12aL	4c#	.
.	12b	.	.
.	12aJ	.	.
4A 4E 4AA	8g#XL	4c#^<	.
*Xped	*	*	*
.	8f#J)	.	.
=20	=20	=20	=20
*ped	*	*	*
4EE	(2.g#X^	4r	.
4E	.	4e 4B	.
4B 4E	.	4e^< 4d^<)	.
*Xped	*	*	*
.	.	.	.
=21	=21	=21	=21
*ped	*	*	*
4AA	(>8eL	4r	.
.	8g#X	.	.
4A 4E	8a	4c#	.
.	8b	.	.
4A 4E 4AA	8cc#	4c#^<	.
*Xped	*	*	*
.	8ddJ	.	.
=22	=22	=22	=22
.	16qcc#/LL	.	.
.	16qdd/JJ	.	.
*ped	*	*	*
4DD	4cc#	4r	.
4B 4F#	8bL	4d	.
.	8a	.	.
4B 4F# 4BB	8g#X	4d^<	.
*Xped	*	*	*
.	8f#J)	.	.
!!LO:LB:g=original
=23	=23	=23	=23
*ped	*	*	*
4EE	(>8eL	4r	.
.	8g#XJ	.	.
4B 4E	12g#L	4d	.
.	12a	.	.
.	12g#J	.	.
4B 4E	8f#L	4d^<	.
*Xped	*	*	*
.	8eJ)	.	.
=24	=24	=24	=24
*ped	*	*	*
4AAA	(2.a^>	4r	.
4A 4E 4AA	.	4c#	.
[4A [4E [>4AA	.	[<4c#^<)	.
*Xped	*	*	*
.	.	.	.
=25	=25	=25	=25
*ped	*	*	*
4A] 4E] 4AA]	(>8eL	4c#]	.
.	8g#X	.	.
4A 4E 4AA	8a	4c#	.
.	8b	.	.
4A 4E 4AA	8cc#	4c#	.
*Xped	*	*	*
.	8ddJ	.	.
=26	=26	=26	=26
.	16qcc#/LL	.	.
.	16qdd/JJ	.	.
*ped	*	*	*
4EE	4cc#	4r	.
4B 4E	8bL	4d	.
.	8a	.	.
4B 4E	8g#X	4d	.
*Xped	*	*	*
.	8f#J)	.	.
=27	=27	=27	=27
*ped	*	*	*
4AAA	(>8eL	4r	.
.	8aJ	.	.
4A 4E 4AA	12aL	4c#	.
.	12b	.	.
.	12aJ	.	.
4A 4E 4AA	8g#XL	4c#	.
*Xped	*	*	*
.	8f#J)	.	.
=28	=28	=28	=28
*ped	*	*	*
4EE	(>2.g#X^>	4r	.
4E	.	4e 4B	.
4B [>4E	.	4e 4d	.
*Xped	*	*	*
.	.	.	.
!!LO:PB:g=original
=29	=29	=29	=29
*ped	*	*	*
4E] 4AA	(>8eL)	4r	.
.	8g#X	.	<
4A 4E	8a	4c#	.
.	8b	.	.
4A 4E 4AA	8cc#	4c#	.
*Xped	*	*	*
.	8ddJ	.	.
=30	=30	=30	=30
.	16qcc#/LL	.	.
.	16qdd/JJ	.	.
*ped	*	*	*
4DD	4cc#	4r	[
4B 4F#	8bL	4d	>
.	8a	.	.
4B 4F# 4BB	8g#X	4d	.
*Xped	*	*	*
.	8f#J)	.	]
=31	=31	=31	=31
*ped	*	*	*
4EE	(>8eL	4r	.
.	8g#XJ	.	.
4B 4E	12g#L	4d	.
.	12a	.	.
.	12g#J	.	.
4B 4E	8f#L	4d	.
*Xped	*	*	*
.	8eJ)	.	.
=32	=32	=32	=32
*ped	*	*	*
4AAA	(>2.a^>	4r	.
4e 4A	.	4c#	.
4e 4A	.	(>4gn^< 4c#^<)	.
*Xped	*	*	*
.	.	.	.
=33	=33	=33	=33
*ped	*	*	*
4D	(>8aL)	4f#	ff
.	8cc#	.	.
4d 4A 4D	8dd	4f#	.
.	8ee	.	.
4d 4A 4D	8ff#	4f#^<	.
*Xped	*	*	*
.	8ggJ	.	.
=34	=34	=34	=34
.	16qff#/LL	.	.
.	16qgg/JJ	.	.
*ped	*	*	*
4AA	4ff#	4r	.
4c# 4A 4E	8eeL	4g	.
.	8dd	.	.
4c# 4A 4E	8cc#	4g^<	.
*Xped	*	*	*
.	8bJ)	.	.
!!LO:LB:g=original
=35	=35	=35	=35
*ped	*	*	*
4DD	(>8aL/	4ryy	.
.	8ddJ	.	.
4d 4A 4D	12ddL	4f#	.
.	12ee	.	.
.	12ddJ	.	.
4d 4A 4D	8cc#L	4f#^<	.
*Xped	*	*	*
.	8bJ)	.	.
=36	=36	=36	=36
*ped	*	*	*
4AA	(>2.cc#^>	4r	.
4A	.	4a 4e	.
4e 4A	.	4a^< 4g^<)	.
*Xped	*	*	*
.	.	.	.
=37	=37	=37	=37
*ped	*	*	*
4D	(>8aL	4r	.
.	8cc#	.	.
4d 4A	8dd	4f#	.
.	8ee	.	.
4d 4A 4D	8ff#	4f#	.
*Xped	*	*	*
.	8ggJ	.	.
=38	=38	=38	=38
.	16qff#/LL	.	.
.	16qgg/JJ	.	.
*ped	*	*	*
4GG	4ff#	4r	.
4e 4B	8eeL	4g	.
.	8dd	.	.
4e 4B 4E	8cc#	4g	.
*Xped	*	*	*
.	8bJ)	.	.
=39	=39	=39	=39
*ped	*	*	*
4AA	(>8aL/	4ryy	.
.	8cc#J	.	.
4e 4A	12cc#L	4g	.
.	12dd	.	.
.	12cc#J	.	.
4e 4A	8bL	4g^<	.
*Xped	*	*	*
.	8aJ)	.	.
=40	=40	=40	=40
*ped	*	*	*
4DD	2.dd^>	4r	.
4d 4A 4D	.	4f#	.
[4d [A [>4D	.	[4f#	.
*Xped	*	*	*
.	.	.	.
!!LO:LB:g=original
=41	=41	=41	=41
*ped	*	*	*
4d] 4A] 4D]	(>8aL	4f#]	pp
.	8cc#	.	.
4d 4A 4D	8dd	4f#	.
.	8ee	.	.
4d 4A 4D	8ff#	4f#	.
*Xped	*	*	*
.	8ggJ	.	.
=42	=42	=42	=42
.	16qff#/LL	.	.
.	16qgg/JJ	.	.
*ped	*	*	*
4AA	4ff#	4r	.
4c# 4A 4E	8eeL	4g	.
.	8dd	.	.
4c# 4A 4E	8cc#	4g	.
*Xped	*	*	*
.	8bJ)	.	.
=43	=43	=43	=43
*ped	*	*	*
4DD	(>8aL	4r	.
.	8ddJ	.	.
4d 4A 4D	12ddL	4f#	.
.	12ee	.	.
.	12ddJ	.	.
4d 4A 4D	8cc#L	4f#	.
*Xped	*	*	*
.	8bJ)	.	.
=44	=44	=44	=44
*ped	*	*	*
4AA	(>2.cc#^>	4ryy	.
4c# 4A	.	4a 4e	.
4e [>4A	.	4a 4g)	.
*Xped	*	*	*
.	.	.	.
=45	=45	=45	=45
*ped	*	*	*
4A] 4D	(>8aL	4r	.
.	8cc#	.	.
4d 4A	8dd	4f#	.
.	8ee	.	.
4d 4A 4D	8ff#	4f#	.
*Xped	*	*	*
.	8ggJ	.	.
=46	=46	=46	=46
.	16qff#/LL	.	.
.	16qgg/JJ	.	.
*ped	*	*	*
4GG	4ff#	4r	.
4e 4B	8eeL	4g	.
.	8dd	.	.
4e 4B 4E	8cc#	4g	.
*Xped	*	*	*
.	8bJ)	.	.
!!LO:LB:g=original
=47	=47	=47	=47
*ped	*	*	*
4AA	(>8aL	4r	.
.	8cc#J	.	.
4e 4A	12cc#L	4g	.
.	12dd	.	.
.	12cc#J	.	.
4e 4A	8bL	4g	.
*Xped	*	*	*
.	8aJ)	.	.
=48	=48	=48	=48
4DD	[>2.dd^>	4r	.
4d 4A 4D	.	4f#	.
4d 4A 4D	.	(4f#	.
*	*v	*v	*
*kcancel	*kcancel	*
=49||	=49||	=49||
*k[b-e-]	*k[b-e-]	*
*	*^	*
*ped	*	*	*
4BB-	(>8.ddL]	2f)	.
.	.	.	<
.	16ddJk	.	.
4d 4B- 4F	4ee-	.	.
4d 4B- 4F	4een	[<4b-	[
*Xped	*	*	*
.	.	.	.
=50	=50	=50	=50
*ped	*	*	*
4FF	8.ggL	4b-]	>
.	16ffJk	.	.
4e- 4c 4F	4cc	8aL	]
.	.	8gJ	.
4e- 4A 4F	4cc)	[<4f	.
*Xped	*	*	*
.	.	.	.
=51	=51	=51	=51
*ped	*	*	*
4BB-	(>8.ddL	4f]	.
.	16ddJk	.	.
4d 4B- 4F	4ee-	4b- 4f	<
4d 4B- 4F	4een	4b- [4f	.
*Xped	*	*	*
.	.	.	[
=52	=52	=52	=52
*ped	*	*	*
4AA	4cc\ 4f]	8.gg/L	.
.	.	16ffJ	.
!!mixed beam:problem
8.c\ 8.A\L	4f\	4cc/	.
(<16GG/J	.	.	.
4FF)	4a\	4ff/)	.
*Xped	*	*	*
.	.	.	.
*	*v	*v	*
!!LO:LB:g=original
=53	=53	=53
*ped	*	*
4CC	(>8bb-L 8een 8b-	.
.	16r	.
.	16bb-Jk 16ee 16b-	.
4g 4c	4bb- 4ee 4b-	.
*Xped	*	*
4r	4bb- 4ee 4b-	.
=54	=54	=54
*ped	*	*
8FFL	8bb-L 8ff 8b-	.
16r	16r	.
(>16Bnk	16bb-Jk 16ff 16b-	.
8.c	4bb- 4ff 4b-	.
16dJk	.	.
4c)	4aa 4ff 4a)	.
*Xped	*	*
.	.	.
=55	=55	=55
*ped	*	*
8CL	8aaL 8een 8b-	.
16r	16r	.
(>16Bnk	16aaJk 16ee 16b-	.
8.c	4aa 4ee 4b-	.
16dnyJk	.	.
4c)	4gg 4ee 4b-	.
*Xped	*	*
.	.	.
=56	=56	=56
*ped	*	*
8FL	8ggL 8ee-X 8a	.
16r	16r	.
(>16Bnk	16ggJk 16ee- 16a	.
8.c	4gg 4ee- 4a	.
16enJk	.	.
4f)	4ff 4ee- 4a	.
*Xped	*	*
.	.	.
=57	=57	=57
*	*^	*
*ped	*	*	*
4BB-	&(>8.ddL	4r	.
.	16ddJk	.	.
.	.	.	<
4d 4B- 4F	4ee-	4b- 4f	.
4d 4B- 4F	4een	4b- 4f	.
*Xped	*	*	*
.	.	.	[
!!LO:PB:g=original
=58	=58	=58	=58
*ped	*	*	*
4AA	8.gg-XL	4r	.
.	16ffJk	.	.
4e- 4c 4F	4cc	(>8.fL	.
.	.	16g-XJk	.
4e- 4c 4F	4cc	4f)	.
*Xped	*	*	*
.	.	.	.
=59	=59	=59	=59
*ped	*	*	*
4BB-	8.dd-XL/	4ryy	.
.	16dd-Jk	.	.
4d-X 4B- 4F	4ee-	4b- 4f	.
4d- 4B- 4F	4een	4b- 4f	.
*Xped	*	*	*
.	.	.	.
=60	=60	=60	=60
*ped	*	*	*
4AA-X	8.gg-XL/	4ryy	<
.	16ffJk	.	.
8.f 8.d-X 8.A-X 8.FL	2ryy	4aa-X 4dd-X 4a-X	.
16BB-J	.	.	.
4AA-	.	4ddd-X 4dd-&)	fz
*Xped	*	*	*
.	.	.	.
*	*v	*v	*
=61	=61	=61
*ped	*	*
4AAA-X	8gg-X'>L 8cc'> 8g-X'>	ff
.	16r	.
.	(>16gg-Jk 16cc 16g-	.
4e- 4A-X	4gg- 4cc 4g-	.
*Xped	*	*
4r	4gg- 4cc 4g-)	.
=62	=62	=62
*ped	*	*
8DD-XL	8gg-X'>L 8dd-X'> 8g-X'>	.
16r	16r	.
(>16Gn	(>16gg-Jk 16dd- 16g-	.
8.A	4gg- 4dd- 4g-	.
16B-Jk	.	.
4A)	4ff 4dd- 4f)	.
*Xped	*	*
.	.	.
!!LO:LB:g=original
=63	=63	=63
*ped	*	*
8AA-XL	8ff'>L 8cc'> 8g-X'>	.
16r	16r	.
(>16Gnk	(>16ffJk 16cc 16g-	.
8.A-X	4ff 4cc 4g-	.
.	.	.
16B-XJk	.	.
4A-)	4ee- 4cc 4g-)	.
*Xped	*	*
.	.	.
=64	=64	=64
*	*^	*
*ped	*	*	*
8D-XL	8ee-'>L 8g-X'>	4ryy	.
16r	16r	.	.
(>16Gnk	(>16ee-Jk 16a-y 16g-X	.	.
8.A-X	4ee- 4g-\	2a-/	.
16cJk	.	.	.
4d-X)	4dd-X 4f\)	.	.
*Xped	*	*	*
.	.	.	.
=65!|:	=65!|:	=65!|:	=65!|:
*>B	*	*	*
*	*	*^	*
*ped	*	*	*	*
4EE#X	4ryy	(12ddnL <12g#X/	4ryy	.
.	.	12d	.	.
.	.	N[>12ddJ [<12g#)	.	.
4Bn 4E#X	4ddN]	2g#]	4d^<\	.
!	!	!	!LO:TX:a:t=P:akcent pomiędzy nutami:problem	!
4B 4E#	4dd^<	.	4d\	.
*Xped	*	*	*	*
.	.	.	.	.
=66	=66	=66	=66	=66
*ped	*	*	*	*
4FF#X	4ryy	(12ddL <12a/	4ryy	.
.	.	12d	.	.
.	.	N[>12ddJ [12a)	.	.
4A 4F#X	(>4.ddN]	2a]	4.d^<\	.
4A 4F#	.	.	.	.
.	8cc#X)	.	8c#X\	.
*Xped	*	*	*	*
.	.	.	.	.
=67	=67	=67	=67	=67
*ped	*	*	*	*
4EE#X	4ryy	(12ddL <12g#X/	4ryy	.
.	.	12d	.	.
.	.	N[>12ddJ [12g#)	.	.
4Bn 4E#X	4ddN]	2g#]	4d^<\	.
!	!LO:TX:a:t=P:akcent pomiędzy nutami:problem	!	!	!
4B 4E#	4dd^<	.	4d\	.
*Xped	*	*	*	*
.	.	.	.	.
!!LO:LB:g=original
=68	=68	=68	=68	=68
*ped	*	*	*	*
4FF#X	4ryy	(12ddL <12a/	4ryy	.
.	.	12d	.	.
.	.	N[>12ddJ [12a)	.	.
4A 4F#X	(4.ddN]	2a]	4.d^<\	.
4A 4F#	.	.	.	.
.	8cc#X)	.	8c#X\	.
*Xped	*	*	*	*
.	.	.	.	.
=69	=69	=69	=69	=69
*ped	*	*	*	*
4EEn	4ryy	(12ddL <12g#X/	4ryy	.
.	.	12d	.	.
.	.	N[>12ddJ [12g#)	.	.
4Bn 4E-	>4ddN]	2g#]	4d^<\	.
!	!LO:TX:a:t=P:akcent pomiędzy nutami:problem	!	!	!
4B 4E-	4dd^<	.	4d\	.
*Xped	*	*	*	*
.	.	.	.	.
=70	=70	=70	=70	=70
*ped	*	*	*	*
4AA	4ryy	(12ddL <12a/	4ryy	.
.	.	12d	.	.
.	.	N[>12ddJ [12a)	.	.
4A 4En	(4.ddN]	2a]	4.d\	.
4A 4E	.	.	.	.
.	8cc#X)	.	8c#X\	.
*Xped	*	*	*	*
.	.	.	.	.
=71	=71	=71	=71	=71
*ped	*	*	*	*
4EEn	4ryy	(12ddL <12g#X/	4ryy	.
.	.	12d	.	.
.	.	N[>12ddJ [12g#)	.	.
4Bn 4En	4ddN]	2g#]	4d\	.
!	!LO:TX:a:t=P:akcent pomiędzy nutami:problem	!	!	!
4B 4E	4dd^<	.	4d\	.
*Xped	*	*	*	*
.	.	.	.	.
=72	=72	=72	=72	=72
*>B1	*	*	*	*
*ped	*	*	*	*
4AA	4ryy	(12ddL <12a/	4ryy	.
.	.	12d	.	.
.	.	N[>12ddJ [12a)	.	.
4A 4En	(>4.ddN]	2a]	4.d^<\	.
4A 4E	.	.	.	.
.	8cc#X)	.	8c#X\	.
*Xped	*	*	*	*
.	.	.	.	.
!!LO:LB:g=original
=73:|	=73:|	=73:|	=73:|	=73:|
*>B2	*	*	*	*
*ped	*	*	*	*
4AA	4ryy	(12ddL 12gn/	4ryy	.
.	.	12d	.	.
.	.	N[>12ddJ [12g)	.	.
4e- 4A	4.ddN]	2g]	(>4d\	.
4e- 4A	.	.	4c#X\)	.
.	8cc#X	.	.	.
*Xped	*	*	*	*
.	.	.	.	.
*	*	*tuplet	*	*
*	*	*v	*v	*
*	*v	*v	*
=||74	=||74	=||74
*>C	*	*
*k[f#c#]	*k[f#c#]	*
*	*^	*
*ped	*	*	*
4D	(>8aL	4r	.
.	8cc#	.	.
4d 4A 4D	8dd	4f#	.
.	8ee	.	.
4d 4A 4D	8ff#	4f#^<	.
.	8ggJ	.	.
*Xped	*	*	*
.	.	.	.
=75	=75	=75	=75
.	16qff#/LL	.	.
.	16qgg/JJ	.	.
*ped	*	*	*
4AA	4ff#	4r	.
4c# 4A 4E	8eeL	4g	.
.	8dd	.	.
4c# 4A 4E	8cc#	4g^<	.
.	8bJ)	.	.
*Xped	*	*	*
.	.	.	.
=76	=76	=76	=76
*ped	*	*	*
4DD	(>8aL/	4r	.
.	8ddJ	.	.
4d 4A 4D	12ddL	4f#	.
.	12ee	.	.
.	12ddJ	.	.
4d 4A 4D	8cc#L	4f#	.
.	8bJ)	.	.
*Xped	*	*	*
.	.	.	.
=77	=77	=77	=77
*ped	*	*	*
4AA	(>2.cc#^>	4r	.
4A	.	4a 4e	.
4e 4A	.	4a^< 4g^<)	.
*Xped	*	*	*
.	.	.	.
!!LO:LB:g=original
=78	=78	=78	=78
*ped	*	*	*
4D	(>8aL	4r	.
.	8cc#	.	.
4d 4A	8dd	4f#	.
.	8ee	.	.
4d 4A 4D	8ff#	4f#	.
*Xped	*	*	*
.	8ggJ	.	.
=79	=79	=79	=79
.	16qff#/LL	.	.
.	16qgg/JJ	.	.
*ped	*	*	*
4GG	4ff#	4r	.
4e 4B	8eeL	4g	.
.	8dd	.	.
4e 4B 4E	8cc#	4g	.
*Xped	*	*	*
.	8bJ)	.	.
=80	=80	=80	=80
*ped	*	*	*
4AA	(>8aL/	4r	.
.	8cc#J	.	.
4e 4A	12cc#L	4g	.
.	12dd	.	.
.	12cc#J	.	.
4e 4A	8bL	4g^<	.
*Xped	*	*	*
.	8aJ)	.	.
=81	=81	=81	=81
*ped	*	*	*
4DD	2.dd^>	4r	.
4d 4A 4D	.	4f#	.
[4d [4A [>4D	.	[<4f#^<	.
*Xped	*	*	*
.	.	.	.
=82	=82	=82	=82
*ped	*	*	*
4d] 4A] 4D]	(>8aL	4f#]	pp
.	8cc#	.	.
4d 4A 4D	8dd	4f#	.
.	8ee	.	.
4d 4A 4D	8ff#	4f#	.
.	8ggJ	.	.
*Xped	*	*	*
.	.	.	.
=83	=83	=83	=83
.	16qff#/LL	.	.
.	16qgg/JJ	.	.
*ped	*	*	*
4AA	4ff#	4r	.
4c# 4A 4E	8eeL	4g	.
.	8dd	.	.
4c# 4A 4E	8cc#	4g	.
*Xped	*	*	*
.	8bJ)	.	.
!!LO:PB:g=original
=84	=84	=84	=84
*ped	*	*	*
4DD	(>8aL	4r	.
.	8ddJ	.	.
4d 4A 4D	12ddL	4f#	.
.	12ee	.	.
.	12ddJ	.	.
4d 4A 4D	8cc#L	4f#	.
.	8bJ)	.	.
*Xped	*	*	*
.	.	.	.
=85	=85	=85	=85
*ped	*	*	*
4AA	(>2.cc#^>	4r	.
4c# 4A	.	4a 4e	.
4e [>4A	.	4a 4g)	.
*Xped	*	*	*
.	.	.	.
=86	=86	=86	=86
*ped	*	*	*
4A] 4D	(>8aL	4r	.
.	8cc#	.	.
4d 4A	8dd	4f#	.
.	8ee	.	.
4d 4A 4D	8ff#	4f#	.
.	8ggJ	.	.
*Xped	*	*	*
.	.	.	.
=87	=87	=87	=87
.	16qff#/LL	.	.
.	16qgg/JJ	.	.
*ped	*	*	*
4GG	4ff#	4r	.
4e 4B	8eeL	4g	.
.	8dd	.	.
4e 4B 4E	8cc#	4g	.
.	8bJ)	.	.
*Xped	*	*	*
.	.	.	.
=88	=88	=88	=88
*ped	*	*	*
4AA	(>8aL	4r	.
.	8cc#J	.	.
4e 4A	12cc#L	4g	.
.	12dd	.	.
.	12cc#J	.	.
4e 4A	8bL	4g	.
*Xped	*	*	*
.	8aJ)	.	.
!!LO:LB:g=original
=89	=89	=89	=89
*ped	*	*	*
4DD	2.dd^	4r	.
4d 4A 4D	.	4f#	.
4d 4A 4D	.	4f#	.
*Xped	*	*	*
.	.	.	.
=90	=90	=90	=90
*ped	*	*	*
4AA	(>8eL	4r	f
.	8g#X	.	.
4A 4E 4AA	8a	4c#	.
.	8b	.	.
4A 4E 4AA	8cc#	4c#^<	.
*Xped	*	*	*
.	8ddJ	.	.
=91	=91	=91	=91
.	16qcc#/LL	.	.
.	16qdd/JJ	.	.
*ped	*	*	*
4EE	4cc#	4r	.
4B 4E	8bL	4d	.
.	8a	.	.
4B 4E	8g#X	4d^<	.
*Xped	*	*	*
.	8f#J)	.	.
=92	=92	=92	=92
*ped	*	*	*
4AAA	(>8eL	4r	.
.	8aJ	.	.
4A 4E 4AA	12aL	4c#	.
.	12b	.	.
.	12aJ	.	.
4A 4E 4AA	8g#XL	4c#	.
*Xped	*	*	*
.	8f#J)	.	.
=93	=93	=93	=93
*ped	*	*	*
4EE	(>2.g#X^>	4r	.
4E	.	4e 4B	.
4B 4E	.	4e^< 4d^<)	.
*Xped	*	*	*
.	.	.	.
=94	=94	=94	=94
*ped	*	*	*
4AA	(>8eL	4r	.
.	8g#X	.	.
4A 4E	8a	4c#	.
.	8b	.	.
4A 4E 4AA	8cc#	4c#^<	.
*Xped	*	*	*
.	8ddJ	.	.
!!LO:LB:g=original
=95	=95	=95	=95
.	16qcc#/LL	.	.
.	16qdd/JJ	.	.
*ped	*	*	*
4DD	4cc#	4r	.
4B 4F#	8bL	4d	.
.	8a	.	.
4B 4F# 4BB	8g#X	4d^<	.
*Xped	*	*	*
.	8f#J)	.	.
=96	=96	=96	=96
*ped	*	*	*
4EE	(>8eL	4r	.
.	8g#XJ	.	.
4B 4E	12g#L	4d	.
.	12a	.	.
.	12g#J	.	.
4B 4E	8f#L	4d^<	.
*Xped	*	*	*
.	8eJ)	.	.
=97	=97	=97	=97
*ped	*	*	*
4AAA	2.a^>	4r	.
4A 4E 4AA	.	4c#	.
[4A [4E [>4AA	.	[4c#^<	.
*Xped	*	*	*
.	.	.	.
=98	=98	=98	=98
*ped	*	*	*
4A] 4E] 4AA]	(>8eL	4c#]	pp
.	8g#X	.	.
4A 4E 4AA	8a	4c#	.
.	8b	.	.
4A 4E 4AA	8cc#	4c#	.
*Xped	*	*	*
.	8ddJ	.	.
=99	=99	=99	=99
.	16qcc#/LL	.	.
.	16qdd/JJ	.	.
*ped	*	*	*
4EE	4cc#	4r	.
4B 4E	8bL	4d	.
.	8a	.	.
4B 4E	8g#X	4d	.
*Xped	*	*	*
.	8f#J)	.	.
!!LO:LB:g=original
=100	=100	=100	=100
*ped	*	*	*
4AAA	(>8eL	4r	.
.	8aJ	.	.
4A 4E 4AA	12aL	4c#	.
.	12b	.	.
.	12aJ	.	.
4A 4E 4AA	8g#XL	4c#	.
*Xped	*	*	*
.	8f#J)	.	.
=101	=101	=101	=101
*ped	*	*	*
4EE	(>2.g#X^>	4r	.
4E	.	4e 4B	.
4B [>4E	.	4e 4d)	.
*Xped	*	*	*
.	.	.	.
=102	=102	=102	=102
*ped	*	*	*
4AA 4E]	(>8eL	4r	.
.	8g#X	.	<
4A 4E	8a	4c#	.
.	8b	.	.
4A 4E 4AA	8cc#	4c#	.
*Xped	*	*	*
.	8ddJ	.	.
=103	=103	=103	=103
.	16qcc#/LL	.	.
.	16qdd/JJ	.	.
*ped	*	*	*
4DD	4cc#	4r	[
4B 4F#	8bL	4d	>
.	8a	.	.
4B 4F# 4BB	8g#X	4d	.
*Xped	*	*	*
.	8f#J)	.	]
=104	=104	=104	=104
*ped	*	*	*
4EE	(>8eL	4r	.
.	8g#XJ	.	.
4B 4E	12g#L	4d	.
.	12a	.	.
.	12g#J	.	.
4B 4E	8f#L	4d	.
*Xped	*	*	*
.	8eJ)	.	.
!!LO:LB:g=original
=105	=105	=105	=105
*ped	*	*	*
4AAA	(2.a^>	4r	.
4e 4A	.	4c#	.
4e 4A	.	(>4gn^> 4c#^>)	.
*Xped	*	*	*
.	.	.	.
=106	=106	=106	=106
*ped	*	*	*
4D	(>8aL	4f#)	ff
.	8cc#	.	.
4d 4A 4D	8dd	4f#	.
.	8ee	.	.
4d 4A 4D	8ff#	4f#^<	.
*Xped	*	*	*
.	8ggJ	.	.
=107	=107	=107	=107
.	16qff#/LL	.	.
.	16qgg/JJ	.	.
*ped	*	*	*
4AA	4ff#	4r	.
4c# 4A 4E	8eeL	4g	.
.	8dd	.	.
4c# 4A 4E	8cc#	4g^<	.
*Xped	*	*	*
.	8bJ)	.	.
=108	=108	=108	=108
*ped	*	*	*
4DD	(>8aL/	4r	.
.	8ddJ	.	.
4d 4A 4D	12ddL	4f#	.
.	12ee	.	.
.	12ddJ	.	.
4d 4A 4D	8cc#L	4f#	.
*Xped	*	*	*
.	8bJ)	.	.
=109	=109	=109	=109
*ped	*	*	*
4AA	(>2.cc#^>	4r	.
4A	.	4a 4e	.
4e 4A	.	4a^< 4g^<)	.
*Xped	*	*	*
.	.	.	.
=110	=110	=110	=110
*ped	*	*	*
4D	(>8aL	4r	.
.	8cc#	.	.
4d 4A	8dd	4f#	.
.	8ee	.	.
4d 4A 4D	8ff#	4f#	.
*Xped	*	*	*
.	8ggJ	.	.
!!LO:PB:g=original
=111	=111	=111	=111
.	16qff#/LL	.	.
.	16qgg/JJ	.	.
*ped	*	*	*
4GG	4ff#	4r	.
4e 4B	8eeL	4g	.
.	8dd	.	.
4e 4B 4E	8cc#	4g	.
*Xped	*	*	*
.	8bJ)	.	.
=112	=112	=112	=112
*ped	*	*	*
4AA	(>8aL/	4r	.
.	8cc#J	.	.
4e 4A	12cc#L	4g	.
.	12dd	.	.
.	12cc#J	.	.
4e 4A	8bL	4g^<	.
*Xped	*	*	*
.	8aJ)	.	.
=113	=113	=113	=113
*ped	*	*	*
4DD	2.dd^>	4r	.
4d 4A 4D	.	4f#	.
[4d [4A [>4D	.	[4f#^<	.
*Xped	*	*	*
.	.	.	.
=114	=114	=114	=114
*ped	*	*	*
4d] 4A] 4D]	(>8aL	4f#]	pp
.	8cc#	.	.
4d 4A 4D	8dd	4f#	.
.	8ee	.	.
4d 4A 4D	8ff#	4f#	.
.	8ggJ	.	.
*Xped	*	*	*
.	.	.	.
=115	=115	=115	=115
.	16qff#/LL	.	.
.	16qgg/JJ	.	.
*ped	*	*	*
4AA	4ff#	4r	.
4c# 4A 4E	8eeL	4g	.
.	8dd	.	.
4c# 4A 4E	8cc#	4g	.
*Xped	*	*	*
.	8bJ)	.	.
!!LO:LB:g=original
=116	=116	=116	=116
*ped	*	*	*
4DD	(>8aL	4r	.
.	8ddJ	.	.
4d 4A 4D	12ddL	4f#	.
.	12ee	.	.
.	12ddJ	.	.
4d 4A 4D	8cc#L	4f#	.
*Xped	*	*	*
.	8bJ)	.	.
=117	=117	=117	=117
*ped	*	*	*
4AA	(>2.cc#^>	4r	.
4c# 4A	.	4a 4e	.
4e [>4A	.	4a 4g)	.
*Xped	*	*	*
.	.	.	.
=118	=118	=118	=118
*ped	*	*	*
4A] 4D	(>8aL	4r	.
.	8cc#	.	.
4d 4A	8dd	4f#	.
.	8ee	.	.
4d 4A 4D	8ff#	4f#	.
*Xped	*	*	*
.	8ggJ	.	.
=119	=119	=119	=119
.	16qff#/LL	.	.
.	16qgg/JJ	.	.
*ped	*	*	*
4GG	4ff#	4r	.
4e 4B	8eeL	4g	.
.	8dd	.	.
4e 4B 4E	8cc#	4g	.
*Xped	*	*	*
.	8bJ)	.	.
=120	=120	=120	=120
*ped	*	*	*
4AA	(>8aL	4r	.
.	8cc#J	.	.
4e 4A	12cc#L	4g	.
.	12dd	.	.
.	12cc#J	.	.
4e 4A	8bL	4g	.
*Xped	*	*	*
.	8aJ)	.	.
!!LO:LB:g=original
=121	=121	=121	=121
*ped	*	*	*
4DD	2.dd	4r	.
4d 4A 4D	.	4f#	.
4d 4A 4D	.	4f#	.
*Xped	*	*	*
.	.	.	.
=122	=122	=122	=122
4A 4D	2.dd	(>8f#L	.
.	.	8aJ)	.
4cn 4D	.	8aL	.
.	.	8qb/	.
.	.	8aJ	.
!	!LO:TX:b:Bi:t=accelerando:dur=16qe:ext=cd:problem:tekst with extension lines	!	!
4B 4D	.	(>8g#XL	.
.	.	8eJ)	.
=123	=123	=123	=123
4G 4D	2.dd	(>8eL	.
.	.	8gnJ)	.
4B-X 4D	.	8gL	.
.	.	8qa/	.
.	.	8gJ	.
4A 4D	.	(>8f#L	.
.	.	8dJ)	.
=124	=124	=124	=124
4A 4D	2.dd	(>8f#L	.
.	.	8aJ)	.
4cn 4D	.	8aL	.
.	.	8qb/	.
.	.	8aJ	.
4B 4D	.	(>8g#XL	.
.	.	8eJ)	.
=125	=125	=125	=125
4G 4D	2.dd	(>8eL	.
.	.	8gnJ)	.
4B-X 4D	.	8gL	.
.	.	8qa/	.
.	.	8gJ	.
4A 4D	.	4f#	.
=126	=126	=126	=126
!!linebrake:original
4F# 4D	2.a	(<8dL	.
.	.	8f#J)	.
4A 4D	.	8f#L	.
.	.	8qg/	.
.	.	8f#J	.
4G#X 4D	.	(>8eL	.
.	.	8BJ)	.
=127	=127	=127	=127
4E 4D	2.a	(>8c#L	.
.	.	8eJ)	.
4Gn 4D	.	8eL	.
.	.	8qf#/	.
.	.	8eJ	.
4F# 4D	.	(>8dL	.
.	.	8AJ)	.
=128	=128	=128	=128
4F# 4D	2.a	(<8dL	.
.	.	8f#J)	.
4A 4D	.	8f#L	.
.	.	8qg/	.
.	.	8f#J	.
4G#X 4D	.	(>8eL	.
.	.	8BJ)	.
=129	=129	=129	=129
4E 4D	2.a	(>8c#L	.
.	.	8eJ)	.
4Gn 4D	.	8eL	.
.	.	8qf#/	.
.	.	8eJ	.
4F# 4D	.	(>8dL	.
.	.	8AJ)	.
=130	=130	=130	=130
4AA\ 4DD\	2.d	(<8F#<L	.
.	.	8A<J)	.
4Cn\ 4DD\	.	8A<L	.
.	.	8qB</	.
.	.	8A<J	.
!	!LO:TX:b:Bi:t=smor-zando:dur=9qe:ext=cd:problem:tekst with extension lines	!	!
4BB\ 4DD\	.	(<8G#X<L	.
.	.	8E<J)	.
!!LO:LB:g=original
=131	=131	=131	=131
4GG\ 4DD\	2.d	(<8E<L	.
.	.	8Gn<J)	.
4BB-X\ 4DD\	.	8G<L	.
.	.	8qA</	.
.	.	8G<J	.
4AA\ 4DD\	.	(<8F#<L	.
.	.	8D<J)	.
=132	=132	=132	=132
4AA\ 4DD\	2.d	(<8F#<L	.
.	.	8A<J))	.
4Cn\ 4DD\	.	8A<L	.
.	.	8qB</	.
.	.	8A<J	.
4BB\ 4DD\	.	(<8G#X<L	.
.	.	8E<J)	.
=133	=133	=133	=133
4GG\ 4DD\	2.d	(<8E<L	.
.	.	8Gn<J)	.
4BB-X\ 4DD\	.	8G<L	.
.	.	8qA</	.
.	.	8G<J	.
4AA\ 4DD\	.	(<8F#<L	.
.	.	8D<J)	.
*	*v	*v	*
=134	=134	=134
*ped	*	*
4AA 4DD\	4A</ 4D</	.
4A 4D	4a 4d	.
*clefG2	*	*
4a^> 4d^>	(>8ddL	.
.	8aaJ	.
=135	=135	=135
*	*8va	*
2.a_ 2.d_	8ddd'L	<
.	8fff#'	.
.	8ggg#X'	.
.	8aaa'	.
.	8bbb'	.
.	8cccc#'J)	[
=136	=136	=136
2.a] 2.d<]	2.dddd;	.
*	*X8va	*
*Xped	*	*
.	.	.
==	==	==
*-	*-	*-
!!!title: @{OTL}; @{OPS} @{ONM} publisher: @{PPR}
!!!RDF**kern: > = above
!!!RDF**kern: < = below
!!!RDF**kern: N = linked
!!!RDF**dynam: < = "cresc.", fontstyle = "bold-italic"
!!!ENC: Leszek Kubiak
!!!END: 2018-06-13
!!!EED: Emilia Ziętek
!!!EST: revision finished 2018-06-20
!!!EED2: Jacek Iwaszko
!!!EST2: revision finished 2018-10-22
!!!EED3: Marta Lawrence
!!!EST3: revision finished 2018-11-16
!!!rism-genre: Mazurka
!!!rism-key: D major
!!!rism-opus: op.  33, no. 3
!!!rism-title: Mazurka in D major op.  33, no. 3
!!!rism-permalink: https://opac.rism.info/search?id=300605146&View=rism
!!!rism-773a-OPR: 300605143
!!!rism-parent-permalink: https://opac.rism.info/search?id=300605143&View=rism
